assets/Images et textes Ohmyfood/white-heart.svg

<svg width="22" height="21" viewBox="0 0 22 21" fill="none" xmlns="http://www.w3.org/2000/svg">
<path d="M12.2208 2.40551L12.2206 2.40576L11.3741 3.35732L11.0005 3.77727L10.627 3.35732L9.78047 2.40576L9.77992 2.40514C7.78271 0.152585 4.59762 -0.169649 2.47664 1.80201C-0.0175439 4.1245 -0.15494 8.32357 2.0848 10.8495L10.399 20.2148C10.399 20.2149 10.399 20.2149 10.3991 20.2149C10.7372 20.5955 11.2595 20.5955 11.5977 20.2149C11.5977 20.2149 11.5978 20.2149 11.5978 20.2148L19.9122 10.8493L19.9123 10.8492C22.1559 8.32335 22.0186 4.12461 19.5245 1.80213L12.2208 2.40551ZM12.2208 2.40551C14.2226 0.15233 17.4035 -0.169452 19.5243 1.80187L12.2208 2.40551Z" stroke="#101010"/>
</svg>

<?xml version="1.0" encoding="utf-8"?>
<!-- Generator: Adobe Illustrator 24.3.0, SVG Export Plug-In . SVG Version: 6.00 Build 0)  -->
<svg version="1.1" id="Calque_1" xmlns="http://www.w3.org/2000/svg" xmlns:xlink="http://www.w3.org/1999/xlink" x="0px" y="0px"
	 viewBox="0 0 22 21" style="enable-background:new 0 0 22 21;" xml:space="preserve">
<style type="text/css">
	.st0{fill:none;stroke:#101010;}
</style>
<path class="st0" d="M12.2,2.4L12.2,2.4l-0.8,1L11,3.8l-0.4-0.4l-0.8-1l0,0c-2-2.3-5.2-2.6-7.3-0.6c-2.5,2.3-2.6,6.5-0.4,9l8.3,9.4
	c0,0,0,0,0,0c0.3,0.4,0.9,0.4,1.2,0c0,0,0,0,0,0l8.3-9.4l0,0c2.2-2.5,2.1-6.7-0.4-9 M12.2,2.4c2-2.3,5.2-2.6,7.3-0.6"/>
</svg>
